.local/share/icons/Gruvbox-Plus-Dark/mimetypes/scalable/text-x-c++.svg

<svg width="256" height="256" viewBox="0 0 256 256" fill="none" xmlns="http://www.w3.org/2000/svg">
<g opacity="0.4" filter="url(#filter0_f)">
<path d="M55.0839 15.5636H155.608L216.009 75.7129L216.011 224.609C216.011 233.52 208.749 240.737 199.838 240.737H55.0838C46.1734 240.737 39 233.564 39 224.654V31.6474C39 22.737 46.1734 15.5636 55.0838 15.5636H55.0839Z" fill="#282828"/>
</g>
<path d="M55.0839 15H155.608L216.009 75.1493L216.011 224.045C216.011 232.956 208.749 240.174 199.838 240.174H55.0838C46.1734 240.174 39 233 39 224.09V31.0838C39 22.1734 46.1734 15 55.0838 15H55.0839Z" fill="#ebdbb2"/>
<path fill-rule="evenodd" clip-rule="evenodd" d="M155.609 22.9787H55.0839C50.58 22.9787 46.9787 26.5799 46.9787 31.0838V224.09C46.9787 228.594 50.5799 232.195 55.0838 232.195H199.838C204.371 232.195 208.032 228.521 208.032 224.046V75.1493L155.609 22.9787ZM155.608 15H55.0839C46.1735 15 39 22.1734 39 31.0838V224.09C39 233 46.1734 240.174 55.0838 240.174H199.838C208.749 240.174 216.011 232.956 216.011 224.045L216.009 75.1493L155.608 15Z" fill="url(#paint0_linear)"/>
<path d="M87.994 152.101C96.6308 152.101 101.935 147.272 105.064 140.336L96.6308 137.139C94.4546 140.744 91.8704 143.26 87.994 143.26C80.6493 143.26 77.5209 134.895 77.5209 127.55C77.5209 120.546 80.0372 111.841 87.994 111.841C92.1424 111.841 94.3866 113.881 96.7668 117.485L104.996 113.745C102.819 108.373 97.1069 103 87.994 103C73.2365 103 68 116.669 68 127.55C68 139.316 73.1005 152.101 87.994 152.101Z" fill="url(#paint1_linear)"/>
<path d="M133.603 132.311H145.164V123.742H133.603V112.045H124.762V123.742H113.201V132.311H124.762V144.008H133.603V132.311Z" fill="url(#paint2_linear)"/>
<path d="M176.439 132.311H188V123.742H176.439V112.045H167.598V123.742H156.037V132.311H167.598V144.008H176.439V132.311Z" fill="url(#paint3_linear)"/>
<path opacity="0.25" d="M155.608 17V61.2306C155.608 70.141 162.867 77.1605 171.777 77.1605L216.009 77.1493V75.1493L155.608 17Z" fill="#282828"/>
<path d="M155.608 15V59.2306C155.608 68.141 162.867 75.1605 171.777 75.1605L216.009 75.1493L155.608 15Z" fill="url(#paint4_linear)"/>
<defs>
<filter id="filter0_f" x="23.8778" y="0.441412" width="207.255" height="255.418" filterUnits="userSpaceOnUse" color-interpolation-filters="sRGB">
<feFlood flood-opacity="0" result="BackgroundImageFix"/>
<feBlend mode="normal" in="SourceGraphic" in2="BackgroundImageFix" result="shape"/>
<feGaussianBlur stdDeviation="7.5611" result="effect1_foregroundBlur"/>
</filter>
<linearGradient id="paint0_linear" x1="127.506" y1="15" x2="127.506" y2="240.174" gradientUnits="userSpaceOnUse">
<stop stop-color="#83a598"/>
<stop offset="1" stop-color="#076678"/>
</linearGradient>
<linearGradient id="paint1_linear" x1="128" y1="103" x2="128" y2="152.101" gradientUnits="userSpaceOnUse">
<stop stop-color="#83a598"/>
<stop offset="1" stop-color="#076678"/>
</linearGradient>
<linearGradient id="paint2_linear" x1="128" y1="103" x2="128" y2="152.101" gradientUnits="userSpaceOnUse">
<stop stop-color="#83a598"/>
<stop offset="1" stop-color="#076678"/>
</linearGradient>
<linearGradient id="paint3_linear" x1="128" y1="103" x2="128" y2="152.101" gradientUnits="userSpaceOnUse">
<stop stop-color="#83a598"/>
<stop offset="1" stop-color="#076678"/>
</linearGradient>
<linearGradient id="paint4_linear" x1="185.808" y1="15" x2="185.808" y2="75.1605" gradientUnits="userSpaceOnUse">
<stop stop-color="#83a598"/>
<stop offset="1" stop-color="#076678"/>
</linearGradient>
</defs>
</svg>

<svg width="256" height="256" fill="none" version="1.1" viewBox="0 0 256 256" xmlns="http://www.w3.org/2000/svg">
  <path d="m55.08 15h100.5l60.4 60.15 2e-3 148.9c0 8.911-7.262 16.13-16.17 16.13h-144.8c-8.91 0-16.08-7.174-16.08-16.08v-193c0-8.91 7.173-16.08 16.08-16.08h1e-4z" fill="#ebdbb2"/>
  <path d="m155.6 22.98h-100.5c-4.504 0-8.105 3.601-8.105 8.105v193c0 4.504 3.601 8.105 8.105 8.105h144.8c4.533 0 8.194-3.674 8.194-8.149v-148.9l-52.42-52.17zm-1e-3 -7.979h-100.5c-8.91 0-16.08 7.173-16.08 16.08v193c0 8.91 7.173 16.08 16.08 16.08h144.8c8.911 0 16.17-7.218 16.17-16.13l-2e-3 -148.9-60.4-60.15z" clip-rule="evenodd" fill="url(#paint0_linear)" fill-rule="evenodd"/>
  <path d="m87.99 152.1c8.637 0 13.94-4.829 17.07-11.76l-8.433-3.197c-2.176 3.605-4.76 6.121-8.637 6.121-7.345 0-10.47-8.365-10.47-15.71 0-7.004 2.516-15.71 10.47-15.71 4.148 0 6.393 2.04 8.773 5.644l8.229-3.74c-2.177-5.372-7.889-10.74-17-10.74-14.76 0-19.99 13.67-19.99 24.55 0 11.77 5.1 24.55 19.99 24.55z" fill="url(#paint1_linear)"/>
  <path d="m133.6 132.3h11.56v-8.569h-11.56v-11.7h-8.841v11.7h-11.56v8.569h11.56v11.7h8.841v-11.7z" fill="url(#paint1_linear)"/>
  <path d="m176.4 132.3h11.56v-8.569h-11.56v-11.7h-8.841v11.7h-11.56v8.569h11.56v11.7h8.841v-11.7z" fill="url(#paint1_linear)"/>
  <path d="m155.6 17v44.23c0 8.91 7.259 15.93 16.17 15.93l44.23-0.0112v-2l-60.4-58.15z" fill="#282828" opacity=".25"/>
  <path d="m155.6 15v44.23c0 8.91 7.259 15.93 16.17 15.93l44.23-0.0112-60.4-60.15z" fill="url(#paint4_linear)"/>
  <defs>
    <linearGradient id="paint0_linear" x1="127.5" x2="127.5" y1="15" y2="240.2" gradientUnits="userSpaceOnUse">
      <stop stop-color="#83a598" offset="0"/>
      <stop stop-color="#076678" offset="1"/>
    </linearGradient>
    <linearGradient id="paint1_linear" x1="128" x2="128" y1="103" y2="152.1" gradientUnits="userSpaceOnUse">
      <stop stop-color="#83a598" offset="0"/>
      <stop stop-color="#076678" offset="1"/>
    </linearGradient>
    <linearGradient id="paint4_linear" x1="185.8" x2="185.8" y1="15" y2="75.16" gradientUnits="userSpaceOnUse">
      <stop stop-color="#83a598" offset="0"/>
      <stop stop-color="#076678" offset="1"/>
    </linearGradient>
  </defs>
</svg>
